X:1060
T:The Kirkoswold Reel.
M:C
L:1/8
Q:1/2=104
I: :: ::
Z:Jack Campin * www.campin.me.uk * 2009
K:D
A|FAdf  Adfa| g<ef<d ec2A|FAdf Adfa|g<ec<A d2D:|
A|FAD=c BdGB|^GB`Ee  ce2g|fadf BdGB|F<dD<c d2D:|
<end>
<start>
